X: 1440
T: the Second Wedding
R: reel
B: O'Neill's 1850 #1440
O: J.O'Neill
Z: Bob Safranek, rjs@gsp.org
M: C|
L: 1/8
K: G
(dc) !segno!|: BGAG BGAF | G2(Bd) gedc | BGAG BGAG |1 EAAG ABcA :|2 FDEF G2 |]
|: (Bd) | gfge fgaf | g2(bg) afdf |1 gfge fgaf | bgef g2 :|2 {a}gfge {g}fefd | egfa ged!segno!c |]
